svgs/pia.svg

<svg width="192" height="192" viewBox="0 0 192 192" fill="none" xmlns="http://www.w3.org/2000/svg"><path d="M127.398 169.015H118.75C116.18 169.019 115.252 167.691 114.422 165.811C113.516 163.757 111.543 162.465 109.298 162.465H81.2008C78.9561 162.465 76.978 163.755 76.1168 165.827C75.3391 167.699 74.4813 169.019 71.919 169.015H59.074C56.1118 169.014 55.363 168.079 54.5625 166.184C53.8448 164.485 52.3871 163.27 50.6391 162.682C45.9243 161.095 43.1346 158.577 43.246 152.563V96.2601C43.2409 91.2948 43.382 89.5576 44.6007 87.1388C45.0749 86.1979 45.3435 85.1695 45.4698 84.1235C46.0475 79.3386 49.3054 80.1291 55.197 80.2501L69.377 80.2451C71.8791 80.157 72.4919 80.1316 74.1344 81.6845C75.3223 82.8077 76.8553 83.51 78.49 83.5116L114.124 83.5467C115.637 83.5482 117.117 82.9938 118.059 81.8107C119.018 80.6074 119.404 80.1181 122.602 80.2491L136.862 80.2661C144.667 80.2231 146.697 79.6331 146.729 85.9801V85.9801C146.729 86.0162 146.738 86.0532 146.755 86.0854C148.519 89.5441 148.883 89.1514 148.748 96.267V152.563C148.738 159.265 145.729 161.473 140.386 162.687C138.488 163.118 136.869 164.316 136.08 166.095C135.264 167.939 134.483 169.015 131.822 169.015H127.398Z" stroke="black" stroke-width="14" stroke-miterlimit="6" stroke-linecap="round" stroke-linejoin="round"/><path d="M109.657 53.54L109.658 53.541M82.377 53.542L82.378 53.543" stroke="black" stroke-width="10" stroke-miterlimit="6" stroke-linecap="round" stroke-linejoin="round"/><path d="M87.515 63.726C90.1489 65.8614 93.4822 66.9423 96.868 66.759C99.7137 66.5858 102.433 65.5251 104.645 63.726" stroke="black" stroke-width="6" stroke-miterlimit="6" stroke-linecap="round" stroke-linejoin="round"/><path d="M56.233 75.608V55.7791C56.233 55.4191 56.2642 55.0595 56.3337 54.7063C58.0149 46.1653 62.6646 38.2343 69.305 32.604C76.672 26.357 86.357 23.026 96.017 22.985C105.857 22.944 115.733 26.31 123.297 32.605C130.037 38.2115 134.856 46.08 136.803 54.6264C136.895 55.0323 136.937 55.4478 136.937 55.8641V75.608" stroke="black" stroke-width="14" stroke-miterlimit="6" stroke-linecap="round" stroke-linejoin="round"/><path d="M103.885 149.164C103.871 149.167 103.857 149.168 103.843 149.168H89.49C85.405 149.145 84.055 147.715 84.2 144.245L87.1369 126.021C87.4875 123.846 86.5497 121.704 85.081 120.061C76.6159 110.593 81.1583 95.7774 94.756 94.2811C95.398 94.2101 96.044 94.2741 96.689 94.2821C110.519 95.1263 115.609 110.737 106.936 120.146C105.375 121.839 104.352 124.071 104.738 126.341L107.648 143.428C108.24 147.363 106.7 148.842 103.885 149.164V149.164Z" stroke="black" stroke-width="6" stroke-miterlimit="6" stroke-linecap="round" stroke-linejoin="round"/></svg>

<svg xmlns="http://www.w3.org/2000/svg" width="192" height="192" fill="none" stroke="#000" stroke-linecap="round" stroke-linejoin="round" stroke-miterlimit="6" stroke-width="14" viewBox="0 0 192 192"><path d="M127.398 169.015h-8.648c-2.57.004-3.498-1.324-4.328-3.204a5.55 5.55 0 0 0-5.124-3.346H81.201c-2.245 0-4.223 1.29-5.084 3.362-.778 1.872-1.636 3.192-4.198 3.188H59.074c-2.962-.001-3.711-.936-4.511-2.831-.718-1.699-2.176-2.914-3.924-3.502-4.715-1.587-7.504-4.105-7.393-10.119V96.26c-.005-4.965.136-6.702 1.355-9.121.474-.941.742-1.97.869-3.015.578-4.785 3.835-3.995 9.727-3.874l14.18-.005c2.502-.088 3.115-.113 4.757 1.44 1.188 1.123 2.721 1.825 4.356 1.827l35.634.035c1.513.001 2.993-.553 3.935-1.736.959-1.204 1.345-1.693 4.543-1.562l14.26.017c7.805-.043 9.835-.633 9.867 5.714v0q0 .055.026.105c1.764 3.46 2.128 3.066 1.993 10.182v56.296c-.01 6.702-3.019 8.91-8.362 10.124-1.898.431-3.517 1.629-4.306 3.408-.816 1.844-1.597 2.92-4.258 2.92z"/><path stroke-width="10" d="m109.657 53.54.001.001m-27.281.001.001.001"/><path stroke-width="6" d="M87.515 63.726a13.64 13.64 0 0 0 17.13 0"/><path d="M56.233 75.608V55.779q-.002-.542.1-1.073c1.682-8.54 6.332-16.472 12.972-22.102 7.367-6.247 17.052-9.578 26.712-9.619 9.84-.041 19.716 3.325 27.28 9.62 6.74 5.607 11.559 13.475 13.506 22.021.092.406.134.822.134 1.238v19.744"/><path stroke-width="6" d="M103.885 149.164a.2.2 0 0 1-.042.004H89.49c-4.085-.023-5.435-1.453-5.29-4.923l2.937-18.224c.35-2.175-.587-4.317-2.056-5.96-8.465-9.468-3.923-24.284 9.675-25.78.642-.07 1.288-.007 1.933.001 13.83.844 18.92 16.455 10.247 25.864-1.561 1.693-2.584 3.925-2.198 6.195l2.91 17.087c.592 3.935-.948 5.414-3.763 5.736"/></svg>
